lib/flags/l/LI.svg

<svg xmlns="http://www.w3.org/2000/svg" fill="none" viewBox="0 0 32 24"><mask id="LI_svg__a" width="32" height="24" x="0" y="0" mask-type="alpha" maskUnits="userSpaceOnUse"><path fill="#fff" d="M0 0H32V24H0z"/></mask><g mask="url(#LI_svg__a)"><path fill="#E31D1C" fill-rule="evenodd" d="M0 0V24H32V0H0Z" clip-rule="evenodd"/><mask id="LI_svg__b" width="32" height="24" x="0" y="0" mask-type="alpha" maskUnits="userSpaceOnUse"><path fill="#fff" fill-rule="evenodd" d="M0 0V24H32V0H0Z" clip-rule="evenodd"/></mask><g mask="url(#LI_svg__b)"><path fill="#2E42A5" fill-rule="evenodd" d="M0 0V12H32V0H0Z" clip-rule="evenodd"/><path fill="#000" fill-rule="evenodd" d="M4.79846 11.0532C4.79846 11.0532 6.00513 11.8043 8.8013 11.8043C11.5975 11.8043 13.0817 11.0532 13.0817 11.0532C13.0817 11.0532 10.8888 9.77844 8.92815 9.77844C6.96747 9.77844 4.79846 11.0532 4.79846 11.0532Z" clip-rule="evenodd"/><path fill="#FFD83D" stroke="#000" stroke-width=".5" d="M4.87056 6.74216L4.65448 6.8679L4.72678 6.99216H4.87056H13.1958H13.379L13.4342 6.81749L13.1958 6.74216C13.4342 6.81749 13.4342 6.81741 13.4342 6.81733L13.4343 6.81711L13.4345 6.81654L13.435 6.81485L13.4367 6.80926L13.4426 6.78952C13.4476 6.77265 13.4545 6.74846 13.4628 6.71774C13.4793 6.65634 13.5013 6.56858 13.5242 6.46069C13.5696 6.24556 13.6189 5.94706 13.6326 5.61585C13.6594 4.96764 13.5524 4.1225 12.9232 3.57555C12.2821 3.01819 11.4686 3.10495 10.7668 3.28035C10.5279 3.34005 10.2844 3.41505 10.0563 3.48529C9.9486 3.51846 9.84436 3.55056 9.74569 3.57949C9.42439 3.67369 9.15655 3.73619 8.94099 3.73619C8.72647 3.73619 8.49 3.67848 8.21238 3.59108C8.12818 3.56457 8.03876 3.5348 7.94574 3.50383C7.74604 3.43733 7.52973 3.3653 7.31273 3.30819C6.65393 3.13482 5.89352 3.06933 5.05065 3.54668C4.61167 3.7953 4.36067 4.14139 4.24182 4.52067C4.1253 4.89253 4.13991 5.28185 4.20194 5.62314C4.26424 5.96587 4.3772 6.27571 4.47304 6.49785C4.52122 6.60954 4.56572 6.70055 4.59851 6.76423C4.61493 6.7961 4.62845 6.82122 4.6381 6.83875L4.64955 6.85929L4.65288 6.86512L4.6539 6.8669L4.65424 6.86749L4.65437 6.86772C4.65443 6.86781 4.65448 6.8679 4.87056 6.74216Z"/><path fill="#FFD83D" stroke="#000" stroke-width=".5" d="M3.88613 6.906 4.00269 7.12717C3.88613 6.906 3.88623 6.90595 3.88633 6.90589L3.88657 6.90577 3.88716 6.90546 3.88879 6.90461 3.89386 6.902 3.91122 6.89331C3.926 6.88602 3.94721 6.8758 3.97487 6.86308 4.03019 6.83765 4.1113 6.80222 4.21834 6.76017 4.43244 6.67606 4.75023 6.56548 5.17292 6.45544 6.0185 6.2353 7.28278 6.01758 8.97516 6.01758 10.6675 6.01758 11.9318 6.2353 12.7774 6.45544 13.2001 6.56548 13.5179 6.67606 13.732 6.76017 13.839 6.80222 13.9201 6.83765 13.9754 6.86308 14.0031 6.8758 14.0243 6.88602 14.0391 6.89331L14.0565 6.902 14.0615 6.90461 14.0632 6.90546 14.0637 6.90577 14.064 6.90589C14.0641 6.90595 14.0642 6.906 13.9476 7.12717L14.0642 6.906 14.2589 7.0086 14.1818 7.21474 12.9969 10.3831 12.9143 10.6039 3.88613 6.906zM3.88613 6.906 3.69317 7.00769 3.76776 7.21266 4.92072 10.381 5.00123 10.6023 5.22685 10.5352 3.88613 6.906zM12.689 10.5344 12.6891 10.5344 5.22689 10.5352 5.22698 10.5351 5.22776 10.5349 5.23138 10.5338 5.24667 10.5294C5.26039 10.5255 5.28108 10.5196 5.30828 10.512 5.36269 10.497 5.4431 10.4752 5.54584 10.4491 5.7514 10.3968 6.04594 10.3269 6.40008 10.2569 7.10996 10.1167 8.0521 9.97775 8.9941 9.97775 9.93586 9.97775 10.8603 10.1166 11.552 10.2567 11.8972 10.3266 12.1828 10.3964 12.3816 10.4486 12.4809 10.4747 12.5585 10.4964 12.6109 10.5114 12.6371 10.5189 12.657 10.5248 12.6702 10.5287L12.6848 10.5331 12.6882 10.5342 12.689 10.5344 12.689 10.5344zM8.87393 4.26515C9.43365 4.26515 9.7962 3.71834 9.7962 3.16987 9.7962 2.62139 9.43365 2.07458 8.87393 2.07458 8.31421 2.07458 7.95166 2.62139 7.95166 3.16987 7.95166 3.71834 8.31421 4.26515 8.87393 4.26515z"/><mask id="LI_svg__c" width="4" height="5" x="7.118" y="-1" fill="#000" maskUnits="userSpaceOnUse"><path fill="#fff" d="M7.118-1H11.118V4H7.118z"/><path fill-rule="evenodd" d="M9.12596 0H8.62176L8.68666 0.922722L8.11755 0.845283V1.47925L8.6954 1.39965L8.62176 2.85283H9.12596L9.05131 1.39721L9.63016 1.47925V0.845283L9.0618 0.926866L9.12596 0Z" clip-rule="evenodd"/></mask><path fill="#FFD83D" fill-rule="evenodd" d="M9.12596 0H8.62176L8.68666 0.922722L8.11755 0.845283V1.47925L8.6954 1.39965L8.62176 2.85283H9.12596L9.05131 1.39721L9.63016 1.47925V0.845283L9.0618 0.926866L9.12596 0Z" clip-rule="evenodd"/><path fill="#000" d="M8.62176 0V-0.5H8.08535L8.12299 0.0350833L8.62176 0ZM9.12596 0L9.62476 0.0345249L9.66176 -0.5H9.12596V0ZM8.68666 0.922722L8.61925 1.41816L9.22858 1.50107L9.18543 0.887638L8.68666 0.922722ZM8.11755 0.845283L8.18497 0.349849L7.61755 0.27264V0.845283H8.11755ZM8.11755 1.47925H7.61755V2.05284L8.18578 1.97457L8.11755 1.47925ZM8.6954 1.39965L9.19476 1.42496L9.22532 0.821939L8.62717 0.904328L8.6954 1.39965ZM8.62176 2.85283L8.1224 2.82752L8.09577 3.35283H8.62176V2.85283ZM9.12596 2.85283V3.35283H9.65225L9.6253 2.82722L9.12596 2.85283ZM9.05131 1.39721L9.12148 0.902154L8.52091 0.817036L8.55197 1.42281L9.05131 1.39721ZM9.63016 1.47925L9.56 1.9743L10.1302 2.05511V1.47925H9.63016ZM9.63016 0.845283H10.1302V0.268387L9.55912 0.350356L9.63016 0.845283ZM9.0618 0.926866L8.563 0.892341L8.52027 1.50972L9.13285 1.42179L9.0618 0.926866ZM8.62176 0.5H9.12596V-0.5H8.62176V0.5ZM9.18543 0.887638L9.12052 -0.0350833L8.12299 0.0350833L8.18789 0.957805L9.18543 0.887638ZM8.05014 1.34072L8.61925 1.41816L8.75407 0.427287L8.18497 0.349849L8.05014 1.34072ZM8.61755 1.47925V0.845283H7.61755V1.47925H8.61755ZM8.62717 0.904328L8.04933 0.983922L8.18578 1.97457L8.76363 1.89497L8.62717 0.904328ZM9.12111 2.87814L9.19476 1.42496L8.19604 1.37434L8.1224 2.82752L9.12111 2.87814ZM9.12596 2.35283H8.62176V3.35283H9.12596V2.35283ZM8.55197 1.42281L8.62661 2.87844L9.6253 2.82722L9.55066 1.3716L8.55197 1.42281ZM9.70032 0.984193L9.12148 0.902154L8.98115 1.89226L9.56 1.9743L9.70032 0.984193ZM9.13016 0.845283V1.47925H10.1302V0.845283H9.13016ZM9.13285 1.42179L9.7012 1.34021L9.55912 0.350356L8.99076 0.431939L9.13285 1.42179ZM8.62715 -0.0345249L8.563 0.892341L9.56061 0.961391L9.62476 0.0345249L8.62715 -0.0345249Z" mask="url(#LI_svg__c)"/></g></g></svg>

<svg xmlns="http://www.w3.org/2000/svg" fill="none" viewBox="0 0 32 24"><mask id="LI_svg__a" width="32" height="24" x="0" y="0" maskUnits="userSpaceOnUse"><path fill="#fff" d="M0 0h32v24H0z"/></mask><g mask="url(#LI_svg__a)"><path fill="#E31D1C" fill-rule="evenodd" d="M0 0v24h32V0H0z" clip-rule="evenodd"/><mask id="LI_svg__b" width="32" height="24" x="0" y="0" maskUnits="userSpaceOnUse"><path fill="#fff" fill-rule="evenodd" d="M0 0v24h32V0H0z" clip-rule="evenodd"/></mask><g mask="url(#LI_svg__b)"><path fill="#2E42A5" fill-rule="evenodd" d="M0 0v12h32V0H0z" clip-rule="evenodd"/><path fill="#000" fill-rule="evenodd" d="M4.798 11.053s1.207.751 4.003.751c2.796 0 4.28-.75 4.28-.75S10.89 9.777 8.929 9.777c-1.96 0-4.13 1.275-4.13 1.275z" clip-rule="evenodd"/><path fill="#FFD83D" stroke="#000" stroke-width=".5" d="M4.87 6.742l-.216.126.073.124h8.652l.055-.174-.238-.076.238.075h0l.001-.002.002-.006.006-.02.02-.071a5.192 5.192 0 00.17-1.102c.026-.648-.08-1.493-.71-2.04-.64-.558-1.454-.471-2.156-.296-.24.06-.483.135-.71.205l-.311.095c-.322.094-.59.156-.805.156-.215 0-.451-.057-.729-.145-.084-.026-.173-.056-.266-.087-.2-.067-.416-.139-.633-.196-.66-.173-1.42-.239-2.262.239-.44.248-.69.594-.81.974-.116.372-.101.76-.04 1.102A4.11 4.11 0 004.6 6.764l.04.075.01.02.004.006v.002h.001l.217-.125z"/><path fill="#FFD83D" stroke="#000" stroke-width=".5" d="M3.886 6.906l.117.221-.117-.221h.001l.002-.001.005-.003.017-.009.064-.03a4.7 4.7 0 01.243-.103c.214-.084.532-.195.955-.305.846-.22 2.11-.437 3.802-.437 1.693 0 2.957.217 3.802.437.423.11.74.221.955.305a4.7 4.7 0 01.307.133l.018.009.005.003h.002l-.116.222.116-.221.195.103-.077.206-1.185 3.168-.083.22-9.028-3.697zm0 0l-.193.102.075.205L4.92 10.38l.08.221.226-.067-1.34-3.629zm8.803 3.628h0l-7.462.001h0l.004-.001.016-.005.061-.017c.055-.015.135-.037.238-.063.205-.052.5-.122.854-.192.71-.14 1.652-.28 2.594-.28s1.866.14 2.558.28a15.093 15.093 0 011.059.254l.06.018.014.004.003.001h.001zM8.874 4.265c.56 0 .922-.547.922-1.095 0-.549-.362-1.095-.922-1.095s-.922.546-.922 1.095c0 .548.362 1.095.922 1.095z"/><mask id="LI_svg__c" width="4" height="5" x="7.118" y="-1" fill="#000" maskUnits="userSpaceOnUse"><path fill="#fff" d="M7.118-1h4v5h-4z"/><path fill-rule="evenodd" d="M9.126 0h-.504l.065.923-.57-.078v.634l.578-.08-.073 1.454h.504l-.075-1.456.58.082V.845l-.57.082L9.127 0z" clip-rule="evenodd"/></mask><path fill="#FFD83D" fill-rule="evenodd" d="M9.126 0h-.504l.065.923-.57-.078v.634l.578-.08-.073 1.454h.504l-.075-1.456.58.082V.845l-.57.082L9.127 0z" clip-rule="evenodd"/><path fill="#000" d="M8.622 0v-.5h-.537l.038.535L8.622 0zm.504 0l.499.035.037-.535h-.536V0zm-.44.923l-.067.495.61.083-.044-.613-.498.035zM8.119.845L8.185.35 7.618.273v.572h.5zm0 .634h-.5v.574l.568-.078-.068-.496zm.577-.08l.5.026.03-.603-.598.082.068.496zm-.073 1.454l-.5-.025-.026.525h.526v-.5zm.504 0v.5h.526l-.027-.526-.499.026zm-.075-1.456l.07-.495-.6-.085.031.606.5-.026zm.58.082l-.071.495.57.081V1.48h-.5zm0-.634h.5V.268L9.558.35l.071.495zm-.57.082L8.564.892l-.043.618.613-.088-.071-.495zM8.622.5h.505v-1h-.504v1zm.564.388l-.064-.923-.998.07.065.923.997-.07zM8.05 1.34l.57.077.134-.99L8.185.35l-.135.99zm.568.138V.845h-1v.634h1zm.01-.575l-.579.08.137.99.578-.079-.137-.99zm.493 1.974l.074-1.453-.999-.05-.074 1.453 1 .05zm.005-.525h-.504v1h.504v-1zm-.574-.93l.075 1.455.998-.05-.074-1.456-.999.05zM9.7.984L9.121.902l-.14.99.579.082.14-.99zM9.13.845v.634h1V.845h-1zm.003.577L9.7 1.34 9.56.35l-.568.082.142.99zM8.627-.035l-.064.927.998.07.064-.927-.998-.07z" mask="url(#LI_svg__c)"/></g></g></svg>
